resources/svg/emotion-laugh-fill.svg

<svg fill="currentColor" viewBox="0 0 24 24" xmlns="http://www.w3.org/2000/svg"><path d="M12 2C17.5228 2 22 6.47715 22 12C22 17.5228 17.5228 22 12 22C6.47715 22 2 17.5228 2 12C2 6.47715 6.47715 2 12 2ZM12 11C10 11 8.33333 11.3333 7 12C7 14.7614 9.23858 17 12 17C14.7614 17 17 14.7614 17 12C15.6667 11.3333 14 11 12 11ZM8.5 7C7.34792 7 6.37786 7.77929 6.08818 8.8395L6.04989 9.00057H10.9501C10.7187 7.85917 9.70968 7 8.5 7ZM15.5 7C14.3479 7 13.3779 7.77929 13.0882 8.8395L13.0499 9.00057H17.9501C17.7187 7.85917 16.7097 7 15.5 7Z"/></svg>

<svg xmlns="http://www.w3.org/2000/svg" viewBox="0 0 24 24" fill="currentColor">
    <g>
        <path fill="none" d="M0 0h24v24H0z"/>
        <path d="M12 2c5.523 0 10 4.477 10 10s-4.477 10-10 10S2 17.523 2 12 6.477 2 12 2zm0 9c-2 0-3.667.333-5 1a5 5 0 0 0 10 0c-1.333-.667-3-1-5-1zM8.5 7c-1.152 0-2.122.78-2.412 1.84L6.05 9h4.9A2.5 2.5 0 0 0 8.5 7zm7 0c-1.152 0-2.122.78-2.412 1.84L13.05 9h4.9a2.5 2.5 0 0 0-2.45-2z"/>
    </g>
</svg>
